; generated by PrusaSlicer 2.3.3+win64 on 2021-11-02 at 10:06:27 UTC

; 

; external perimeters extrusion width = 0.45mm
; perimeters extrusion width = 0.45mm
; infill extrusion width = 0.45mm
; solid infill extrusion width = 0.45mm
; top infill extrusion width = 0.40mm
; support material extrusion width = 0.35mm
; first layer extrusion width = 0.42mm

M73 P0 R136
M73 Q0 S138
M201 X1000 Y1000 Z200 E5000 ; sets maximum accelerations, mm/sec^2
M203 X200 Y200 Z12 E120 ; sets maximum feedrates, mm/sec
M204 P1250 R1250 T1250 ; sets acceleration (P, T) and retract acceleration (R), mm/sec^2
M205 X8.00 Y8.00 Z0.40 E4.50 ; sets the jerk limits, mm/sec
M205 S0 T0 ; sets the minimum extruding and travel feed rate, mm/sec
M107
;TYPE:Custom
M862.3 P "MK3S" ; printer model check
M862.1 P0.4 ; nozzle diameter check
M115 U3.10.0 ; tell printer latest fw version
G90 ; use absolute coordinates
M83 ; extruder relative mode
M104 S230 ; set extruder temp
M140 S85 ; set bed temp
M190 S85 ; wait for bed temp
M109 S230 ; wait for extruder temp
G28 W ; home all without mesh bed level
G80 ; mesh bed leveling
G1 Y-3.0 F1000.0 ; go outside print area
G92 E0.0
G1 X60.0 E9.0 F1000.0 ; intro line
G1 X100.0 E12.5 F1000.0 ; intro line
G92 E0.0
M221 S95

; Don't change E values below. Excessive value can damage the printer.

M907 E538 ; set extruder motor current
G21 ; set units to millimeters
G90 ; use absolute coordinates
M83 ; use relative distances for extrusion
M900 K0.08 ; Filament gcode LA 1.5
M900 K45 ; Filament gcode LA 1.0
;LAYER_CHANGE
;Z:0.2
;HEIGHT:0.2
;BEFORE_LAYER_CHANGE
G92 E0.0
;0.2


G1 E-1.00000 F2100.000
G1 Z0.200 F10800.000
;AFTER_LAYER_CHANGE
;0.2
G1 Z0.400
G1 X26.289 Y90.001
G1 Z0.200
G1 E1.00000 F2100.000
M204 S1000
;TYPE:Skirt
;WIDTH:0.42
G1 F1200.000
G1 X26.910 Y89.030 E0.03613
G1 X27.695 Y88.394 E0.03168
G1 X28.184 Y88.156 E0.01704
G1 X28.784 Y87.985 E0.01956
G1 X29.404 Y87.928 E0.01955
G1 X199.571 Y87.928 E5.33547
M73 P0 R135
G1 X219.144 Y87.943 E0.61368
G1 X220.270 Y88.120 E0.03575
G1 X221.459 Y88.623 E0.04049
M73 Q0 S137
G1 X222.472 Y89.400 E0.04002
G1 X223.223 Y90.350 E0.03799
G1 X223.791 Y91.647 E0.04439
G1 X223.976 Y92.942 E0.04102
G1 X223.974 Y117.117 E0.75798
G1 X223.797 Y118.333 E0.03853
G1 X223.298 Y119.528 E0.04061
G1 X222.513 Y120.559 E0.04061
G1 X221.557 Y121.316 E0.03823
G1 X220.250 Y121.886 E0.04474
G1 X218.910 Y122.069 E0.04238
G1 X29.382 Y122.072 E5.94254
G1 X28.769 Y122.013 E0.01928
G1 X28.185 Y121.845 E0.01906
G1 X27.625 Y121.565 E0.01962
G1 X27.182 Y121.235 E0.01735
G1 X26.505 Y120.425 E0.03309
G1 X26.259 Y119.924 E0.01751
G1 X26.085 Y119.316 E0.01981
G1 X26.028 Y118.701 E0.01939
G1 X26.038 Y91.079 E0.86605
G1 X26.276 Y90.059 E0.03285
; printing object LED-PlexyHalter.stl id:0 copy 0
;WIPE_START
G1 F8640.000
G1 X26.910 Y89.030 E-0.27920
G1 X27.695 Y88.394 E-0.23329
G1 X28.184 Y88.156 E-0.12547
G1 X28.784 Y87.985 E-0.14403
G1 X29.404 Y87.928 E-0.14394
G1 X29.509 Y87.928 E-0.02407
;WIPE_END
G1 E-0.05000 F2100.000
G1 Z0.400 F10800.000
G1 X69.601 Y113.103
G1 Z0.200
G1 E1.00000 F2100.000
;TYPE:Perimeter
G1 F1200.000
G1 X70.188 Y112.338 E0.03023
G1 X70.953 Y111.751 E0.03023
G1 X71.844 Y111.382 E0.03023
G1 X72.800 Y111.256 E0.03023
G1 X73.756 Y111.382 E0.03023
G1 X74.647 Y111.751 E0.03023
G1 X75.412 Y112.338 E0.03023
G1 X75.999 Y113.103 E0.03023
G1 X76.368 Y113.994 E0.03023
G1 X76.494 Y114.950 E0.03023
G1 X76.368 Y115.906 E0.03023
G1 X75.999 Y116.797 E0.03023
G1 X75.412 Y117.562 E0.03023
G1 X74.647 Y118.149 E0.03023
G1 X73.756 Y118.518 E0.03023
G1 X72.800 Y118.644 E0.03023
G1 X71.844 Y118.518 E0.03023
G1 X70.953 Y118.149 E0.03023
G1 X70.188 Y117.562 E0.03023
G1 X69.601 Y116.797 E0.03023
G1 X69.232 Y115.906 E0.03023
G1 X69.106 Y114.950 E0.03023
G1 X69.232 Y113.994 E0.03023
G1 X69.578 Y113.158 E0.02835
G1 X69.926 Y113.303 F10800.000
;TYPE:External perimeter
G1 F1200.000
G1 X70.457 Y112.607 E0.02744
G1 X71.143 Y112.080 E0.02712
G1 X71.942 Y111.749 E0.02712
G1 X72.800 Y111.636 E0.02712
G1 X73.658 Y111.749 E0.02712
G1 X74.457 Y112.080 E0.02712
G1 X75.143 Y112.607 E0.02712
G1 X75.670 Y113.293 E0.02712
G1 X76.001 Y114.092 E0.02712
G1 X76.114 Y114.950 E0.02712
G1 X76.001 Y115.808 E0.02712
G1 X75.670 Y116.607 E0.02712
G1 X75.143 Y117.293 E0.02712
G1 X74.457 Y117.820 E0.02712
G1 X73.658 Y118.151 E0.02712
G1 X72.800 Y118.264 E0.02712
G1 X71.942 Y118.151 E0.02712
G1 X71.143 Y117.820 E0.02712
G1 X70.457 Y117.293 E0.02712
G1 X69.930 Y116.607 E0.02712
G1 X69.599 Y115.808 E0.02712
G1 X69.486 Y114.950 E0.02712
G1 X69.599 Y114.092 E0.02712
G1 X69.903 Y113.358 E0.02492
G1 X69.726 Y112.957 F10800.000
;WIPE_START
G1 F8640.000
G1 X70.457 Y112.607 E-0.21546
G1 X71.143 Y112.080 E-0.19973
G1 X71.942 Y111.749 E-0.19973
G1 X72.800 Y111.636 E-0.19973
G1 X73.381 Y111.713 E-0.13534
;WIPE_END
G1 E-0.05000 F2100.000
G1 Z0.400 F10800.000
G1 X71.857 Y98.520
G1 Z0.200
G1 E1.00000 F2100.000
;TYPE:Perimeter
G1 F1200.000
G1 X70.953 Y98.149 E0.03063
G1 X70.188 Y97.562 E0.03023
G1 X69.601 Y96.797 E0.03023
G1 X69.232 Y95.906 E0.03023
G1 X69.106 Y94.950 E0.03023
G1 X69.232 Y93.994 E0.03023
G1 X69.601 Y93.103 E0.03023
G1 X70.188 Y92.338 E0.03023
G1 X70.953 Y91.751 E0.03023
G1 X71.844 Y91.382 E0.03023
G1 X72.800 Y91.256 E0.03023
G1 X73.756 Y91.382 E0.03023
G1 X74.647 Y91.751 E0.03023
G1 X75.412 Y92.338 E0.03023
G1 X75.999 Y93.103 E0.03023
G1 X76.368 Y93.994 E0.03023
G1 X76.494 Y94.950 E0.03023
G1 X76.368 Y95.906 E0.03023
G1 X75.999 Y96.797 E0.03023
G1 X75.412 Y97.562 E0.03023
G1 X74.647 Y98.149 E0.03023
G1 X73.756 Y98.518 E0.03023
G1 X72.800 Y98.644 E0.03023
G1 X71.916 Y98.528 E0.02794
G1 X71.966 Y98.154 F10800.000
;TYPE:External perimeter
G1 F1200.000
G1 X71.143 Y97.820 E0.02783
G1 X70.457 Y97.293 E0.02712
G1 X69.930 Y96.607 E0.02712
G1 X69.599 Y95.808 E0.02712
G1 X69.486 Y94.950 E0.02712
G1 X69.599 Y94.092 E0.02712
G1 X69.930 Y93.293 E0.02712
G1 X70.457 Y92.607 E0.02712
G1 X71.143 Y92.080 E0.02712
G1 X71.942 Y91.749 E0.02712
G1 X72.800 Y91.636 E0.02712
G1 X73.658 Y91.749 E0.02712
G1 X74.457 Y92.080 E0.02712
G1 X75.143 Y92.607 E0.02712
G1 X75.670 Y93.293 E0.02712
G1 X76.001 Y94.092 E0.02712
G1 X76.114 Y94.950 E0.02712
G1 X76.001 Y95.808 E0.02712
G1 X75.670 Y96.607 E0.02712
G1 X75.143 Y97.293 E0.02712
G1 X74.457 Y97.820 E0.02712
G1 X73.658 Y98.151 E0.02712
G1 X72.800 Y98.264 E0.02712
G1 X72.025 Y98.162 E0.02450
G1 X71.684 Y98.438 F10800.000
;WIPE_START
G1 F8640.000
G1 X71.143 Y97.820 E-0.21842
G1 X70.457 Y97.293 E-0.19973
G1 X69.930 Y96.607 E-0.19973
G1 X69.599 Y95.808 E-0.19973
G1 X69.525 Y95.239 E-0.13238
;WIPE_END
G1 E-0.05000 F2100.000
G1 Z0.400 F10800.000
G1 X50.013 Y102.613
G1 Z0.200
G1 E1.00000 F2100.000
;TYPE:Perimeter
G1 F1200.000
G1 X217.587 Y102.613 E5.25417
G1 X217.587 Y106.587 E0.12461
G1 X50.013 Y106.587 E5.25417
G1 X50.013 Y102.673 E0.12273
G1 X50.390 Y102.990 F10800.000
;TYPE:External perimeter
G1 F1200.000
G1 X217.210 Y102.990 E5.23052
G1 X217.210 Y106.210 E0.10096
G1 X50.390 Y106.210 E5.23052
M73 P0 R134
G1 X50.390 Y103.050 E0.09908
G1 X50.192 Y102.642 F10800.000
;WIPE_START
G1 F8640.000
G1 X54.504 Y103.049 E-0.95000
;WIPE_END
G1 E-0.05000 F2100.000
G1 Z0.400 F10800.000
G1 X39.313 Y100.413
G1 Z0.200
G1 E1.00000 F2100.000
;TYPE:Perimeter
G1 F1200.000
G1 X48.487 Y100.413 E0.28765
G1 X48.487 Y109.587 E0.28765
G1 X39.313 Y109.587 E0.28765
G1 X39.313 Y100.473 E0.28577
G1 X39.690 Y100.790 F10800.000
;TYPE:External perimeter
G1 F1200.000
G1 X48.110 Y100.790 E0.26400
G1 X48.110 Y109.210 E0.26400
G1 X39.690 Y109.210 E0.26400
G1 X39.690 Y100.850 E0.26212
G1 X39.586 Y100.404 F10800.000
;WIPE_START
G1 F8640.000
G1 X43.804 Y100.821 E-0.95000
;WIPE_END
G1 E-0.05000 F2100.000
G1 Z0.400 F10800.000
G1 X203.106 Y94.950
G1 Z0.200
G1 E1.00000 F2100.000
;TYPE:Perimeter
G1 F1200.000
G1 X203.232 Y93.994 E0.03023
G1 X203.601 Y93.103 E0.03023
G1 X204.188 Y92.338 E0.03023
M73 Q0 S136
G1 X204.953 Y91.751 E0.03023
G1 X205.844 Y91.382 E0.03023
G1 X206.800 Y91.256 E0.03023
G1 X207.756 Y91.382 E0.03024
G1 X208.647 Y91.751 E0.03023
G1 X209.412 Y92.338 E0.03023
G1 X209.999 Y93.103 E0.03023
G1 X210.368 Y93.994 E0.03023
G1 X210.494 Y94.950 E0.03023
G1 X210.368 Y95.906 E0.03023
G1 X209.999 Y96.797 E0.03023
G1 X209.412 Y97.562 E0.03023
G1 X208.647 Y98.149 E0.03023
G1 X207.756 Y98.518 E0.03023
G1 X206.800 Y98.644 E0.03024
G1 X205.844 Y98.518 E0.03023
G1 X204.953 Y98.149 E0.03023
G1 X204.188 Y97.562 E0.03023
G1 X203.601 Y96.797 E0.03023
G1 X203.232 Y95.906 E0.03023
G1 X203.114 Y95.009 E0.02835
G1 X203.488 Y94.960 F10800.000
;TYPE:External perimeter
G1 F1200.000
G1 X203.599 Y94.092 E0.02744
G1 X203.930 Y93.293 E0.02712
G1 X204.457 Y92.607 E0.02712
G1 X205.143 Y92.080 E0.02712
G1 X205.942 Y91.749 E0.02712
G1 X206.800 Y91.636 E0.02712
G1 X207.658 Y91.749 E0.02712
G1 X208.457 Y92.080 E0.02712
G1 X209.143 Y92.607 E0.02712
G1 X209.670 Y93.293 E0.02712
G1 X210.001 Y94.092 E0.02712
G1 X210.114 Y94.950 E0.02712
G1 X210.001 Y95.808 E0.02712
G1 X209.670 Y96.607 E0.02712
G1 X209.143 Y97.293 E0.02712
G1 X208.457 Y97.820 E0.02712
G1 X207.658 Y98.151 E0.02712
G1 X206.800 Y98.264 E0.02712
G1 X205.942 Y98.151 E0.02712
G1 X205.143 Y97.820 E0.02712
G1 X204.457 Y97.293 E0.02712
G1 X203.930 Y96.607 E0.02712
G1 X203.599 Y95.808 E0.02712
G1 X203.496 Y95.020 E0.02492
G1 X203.141 Y94.761 F10800.000
;WIPE_START
G1 F8640.000
G1 X203.599 Y94.092 E-0.21547
G1 X203.930 Y93.293 E-0.19973
G1 X204.457 Y92.607 E-0.19973
G1 X205.143 Y92.080 E-0.19973
G1 X205.685 Y91.856 E-0.13534
;WIPE_END
G1 E-0.05000 F2100.000
G1 Z0.400 F10800.000
G1 X205.844 Y111.382
G1 Z0.200
G1 E1.00000 F2100.000
;TYPE:Perimeter
G1 F1200.000
G1 X206.800 Y111.256 E0.03023
G1 X207.756 Y111.382 E0.03024
G1 X208.647 Y111.751 E0.03023
G1 X209.412 Y112.338 E0.03023
G1 X209.999 Y113.103 E0.03023
G1 X210.368 Y113.994 E0.03023
G1 X210.494 Y114.950 E0.03023
G1 X210.368 Y115.906 E0.03023
G1 X209.999 Y116.797 E0.03023
G1 X209.412 Y117.562 E0.03023
G1 X208.647 Y118.149 E0.03023
G1 X207.756 Y118.518 E0.03023
G1 X206.800 Y118.644 E0.03024
G1 X205.844 Y118.518 E0.03023
G1 X204.953 Y118.149 E0.03023
G1 X204.188 Y117.562 E0.03023
G1 X203.601 Y116.797 E0.03023
G1 X203.232 Y115.906 E0.03023
G1 X203.106 Y114.950 E0.03023
G1 X203.232 Y113.994 E0.03023
G1 X203.601 Y113.103 E0.03023
G1 X204.188 Y112.338 E0.03023
G1 X204.953 Y111.751 E0.03023
G1 X205.789 Y111.405 E0.02835
G1 X205.933 Y111.753 F10800.000
;TYPE:External perimeter
G1 F1200.000
G1 X206.800 Y111.636 E0.02744
G1 X207.658 Y111.749 E0.02712
G1 X208.457 Y112.080 E0.02712
G1 X209.143 Y112.607 E0.02712
G1 X209.670 Y113.293 E0.02712
G1 X210.001 Y114.092 E0.02712
G1 X210.114 Y114.950 E0.02712
G1 X210.001 Y115.808 E0.02712
G1 X209.670 Y116.607 E0.02712
G1 X209.143 Y117.293 E0.02712
G1 X208.457 Y117.820 E0.02712
G1 X207.658 Y118.151 E0.02712
G1 X206.800 Y118.264 E0.02712
G1 X205.942 Y118.151 E0.02712
G1 X205.143 Y117.820 E0.02712
G1 X204.457 Y117.293 E0.02712
G1 X203.930 Y116.607 E0.02712
G1 X203.599 Y115.808 E0.02712
G1 X203.486 Y114.950 E0.02712
G1 X203.599 Y114.092 E0.02712
G1 X203.930 Y113.293 E0.02712
G1 X204.457 Y112.607 E0.02712
G1 X205.143 Y112.080 E0.02712
G1 X205.877 Y111.776 E0.02492
G1 X206.035 Y111.367 F10800.000
;WIPE_START
G1 F8640.000
G1 X206.800 Y111.636 E-0.21547
G1 X207.658 Y111.749 E-0.19973
G1 X208.457 Y112.080 E-0.19973
G1 X209.143 Y112.607 E-0.19973
G1 X209.500 Y113.072 E-0.13534
;WIPE_END
G1 E-0.05000 F2100.000
G1 Z0.400 F10800.000
G1 X29.287 Y118.870
M73 P1 R134
M73 Q1 S136
G1 Z0.200
G1 E1.00000 F2100.000
;TYPE:Perimeter
G1 F1200.000
G1 X29.212 Y118.778 E0.00372
G1 X29.192 Y118.660 E0.00376
G1 X29.192 Y91.337 E0.85671
G1 X29.230 Y91.187 E0.00483
G1 X29.288 Y91.130 E0.00256
G1 X29.362 Y91.099 E0.00252
G1 X218.848 Y91.095 E5.94120
G1 X219.393 Y91.167 E0.01723
G1 X219.853 Y91.357 E0.01560
G1 X220.248 Y91.660 E0.01560
G1 X220.551 Y92.055 E0.01560
G1 X220.741 Y92.514 E0.01560
G1 X220.813 Y93.060 E0.01725
G1 X220.813 Y116.940 E0.74873
G1 X220.741 Y117.486 E0.01725
G1 X220.551 Y117.945 E0.01560
G1 X220.248 Y118.340 E0.01560
G1 X219.853 Y118.643 E0.01560
G1 X219.393 Y118.833 E0.01560
G1 X218.848 Y118.905 E0.01723
G1 X29.437 Y118.908 E5.93887
G1 X29.342 Y118.895 E0.00300
G1 X29.232 Y119.256 F10800.000
;TYPE:External perimeter
G1 F1200.000
G1 X29.077 Y119.185 E0.00536
G1 X28.915 Y119.023 E0.00719
G1 X28.828 Y118.811 E0.00717
G1 X28.815 Y118.678 E0.00418
G1 X28.815 Y91.319 E0.85784
G1 X28.827 Y91.188 E0.00411
G1 X28.915 Y90.977 E0.00718
G1 X29.077 Y90.815 E0.00719
G1 X29.289 Y90.728 E0.00717
G1 X29.422 Y90.715 E0.00418
G1 X218.873 Y90.718 E5.94012
G1 X219.492 Y90.799 E0.01957
G1 X220.043 Y91.028 E0.01871
G1 X220.517 Y91.391 E0.01872
G1 X220.880 Y91.865 E0.01871
G1 X221.109 Y92.416 E0.01871
G1 X221.190 Y93.035 E0.01959
G1 X221.190 Y116.965 E0.75028
G1 X221.109 Y117.584 E0.01959
G1 X220.880 Y118.135 E0.01871
G1 X220.517 Y118.609 E0.01871
G1 X220.043 Y118.972 E0.01872
G1 X219.492 Y119.201 E0.01871
G1 X218.873 Y119.282 E0.01956
G1 X29.290 Y119.273 E5.94425
G1 X29.192 Y119.090 F10800.000
;WIPE_START
G1 F8640.000
G1 X29.077 Y119.185 E-0.05320
G1 X28.915 Y119.023 E-0.05294
G1 X28.828 Y118.811 E-0.05278
G1 X28.815 Y118.678 E-0.03082
G1 X28.815 Y115.386 E-0.76026
;WIPE_END
G1 E-0.05000 F2100.000
G1 Z0.400 F10800.000
G1 X73.866 Y118.698
G1 Z0.200
G1 E1.00000 F2100.000
;TYPE:Gap fill
;WIDTH:0.134033
G1 F1200.000
G1 X73.998 Y118.672 E0.00102
;WIDTH:0.174747
G1 X74.130 Y118.646 E0.00148
;WIDTH:0.215461
G1 X74.263 Y118.620 E0.00193
;WIDTH:0.256175
G1 X74.395 Y118.593 E0.00239
;WIDTH:0.296889
G1 X74.527 Y118.567 E0.00285
;WIPE_START
G1 F8640.000
G1 X74.395 Y118.593 E-0.03112
;WIPE_END
G1 E-0.96888 F2100.000
G1 Z0.400 F10800.000
G1 X74.716 Y91.422
G1 Z0.200
G1 E1.00000 F2100.000
;WIDTH:0.279576
G1 F1200.000
G1 X74.563 Y91.392 E0.00306
;WIDTH:0.233012
G1 X74.411 Y91.362 E0.00246
;WIDTH:0.186448
G1 X74.258 Y91.331 E0.00186
;WIDTH:0.139884
G1 X74.106 Y91.301 E0.00125
;WIPE_START
G1 F8640.000
G1 X74.258 Y91.331 E-0.03590
;WIPE_END
G1 E-0.96410 F2100.000
G1 Z0.400 F10800.000
G1 X208.109 Y91.302
M73 P1 R133
G1 Z0.200
G1 E1.00000 F2100.000
;WIDTH:0.13977
G1 F1200.000
G1 X208.261 Y91.332 E0.00125
;WIDTH:0.18622
G1 X208.413 Y91.363 E0.00185
;WIDTH:0.232671
G1 X208.566 Y91.393 E0.00245
;WIDTH:0.279121
G1 X208.718 Y91.423 E0.00305
;WIPE_START
G1 F8640.000
G1 X208.566 Y91.393 E-0.03583
;WIPE_END
G1 E-0.96417 F2100.000
G1 Z0.400 F10800.000
G1 X218.863 Y91.211
G1 Z0.200
G1 E1.00000 F2100.000
;TYPE:Solid infill
;WIDTH:0.420621
G1 F1200.000
G1 X220.500 Y92.848 E0.07270
G1 X220.530 Y93.079 E0.00732
G1 X220.530 Y93.412 E0.01048
G1 X218.496 Y91.378 E0.09036
G1 X217.961 Y91.378 E0.01678
G1 X220.530 Y93.946 E0.11409
G1 X220.530 Y94.481 E0.01678
G1 X217.427 Y91.378 E0.13782
G1 X216.893 Y91.377 E0.01678
G1 X220.530 Y95.015 E0.16155
G1 X220.530 Y95.549 E0.01678
G1 X216.359 Y91.377 E0.18527
G1 X215.824 Y91.377 E0.01678
G1 X220.530 Y96.083 E0.20900
G1 X220.530 Y96.617 E0.01678
G1 X215.290 Y91.377 E0.23273
G1 X214.756 Y91.377 E0.01678
G1 X220.530 Y97.151 E0.25646
G1 X220.530 Y97.685 E0.01678
G1 X214.222 Y91.377 E0.28018
G1 X213.688 Y91.377 E0.01678
G1 X220.530 Y98.220 E0.30391
G1 X220.530 Y98.754 E0.01678
G1 X213.153 Y91.377 E0.32764
G1 X212.619 Y91.377 E0.01678
G1 X220.530 Y99.288 E0.35137
G1 X220.530 Y99.822 E0.01678
G1 X212.085 Y91.377 E0.37510
M73 Q1 S135
G1 X211.551 Y91.377 E0.01678
G1 X220.530 Y100.356 E0.39882
G1 X220.530 Y100.890 E0.01678
G1 X211.016 Y91.377 E0.42255
G1 X210.482 Y91.376 E0.01678
G1 X220.530 Y101.424 E0.44628
G1 X220.530 Y101.959 E0.01678
G1 X209.948 Y91.376 E0.47001
G1 X209.414 Y91.376 E0.01678
G1 X220.530 Y102.493 E0.49373
G1 X220.530 Y103.027 E0.01678
G1 X208.993 Y91.490 E0.51242
G1 X208.963 Y91.637 E0.00473
G1 X209.614 Y92.136 E0.02574
G1 X210.246 Y92.960 E0.03262
G1 X210.470 Y93.501 E0.01837
G1 X220.530 Y103.561 E0.44683
G1 X220.530 Y104.095 E0.01678
G1 X210.687 Y94.252 E0.43717
G1 X210.768 Y94.867 E0.01949
G1 X220.530 Y104.629 E0.43357
G1 X220.530 Y105.164 E0.01678
G1 X210.725 Y95.359 E0.43548
G1 X210.663 Y95.831 E0.01495
G1 X217.163 Y102.330 E0.28867
G1 X216.628 Y102.330 E0.01678
G1 X210.537 Y96.238 E0.27057
G1 X210.380 Y96.616 E0.01284
G1 X216.094 Y102.330 E0.25380
