; generated by PrusaSlicer 2.3.3+win64 on 2021-11-02 at 10:02:16 UTC

; 

; external perimeters extrusion width = 0.45mm
; perimeters extrusion width = 0.45mm
; infill extrusion width = 0.45mm
; solid infill extrusion width = 0.45mm
; top infill extrusion width = 0.40mm
; support material extrusion width = 0.35mm
; first layer extrusion width = 0.42mm

M73 P0 R120
M73 Q0 S121
M201 X1000 Y1000 Z200 E5000 ; sets maximum accelerations, mm/sec^2
M203 X200 Y200 Z12 E120 ; sets maximum feedrates, mm/sec
M204 P1250 R1250 T1250 ; sets acceleration (P, T) and retract acceleration (R), mm/sec^2
M205 X8.00 Y8.00 Z0.40 E4.50 ; sets the jerk limits, mm/sec
M205 S0 T0 ; sets the minimum extruding and travel feed rate, mm/sec
M107
;TYPE:Custom
M862.3 P "MK3S" ; printer model check
M862.1 P0.4 ; nozzle diameter check
M115 U3.10.0 ; tell printer latest fw version
G90 ; use absolute coordinates
M83 ; extruder relative mode
M104 S230 ; set extruder temp
M140 S85 ; set bed temp
M190 S85 ; wait for bed temp
M109 S230 ; wait for extruder temp
G28 W ; home all without mesh bed level
G80 ; mesh bed leveling
G1 Y-3.0 F1000.0 ; go outside print area
G92 E0.0
G1 X60.0 E9.0 F1000.0 ; intro line
G1 X100.0 E12.5 F1000.0 ; intro line
G92 E0.0
M221 S95

; Don't change E values below. Excessive value can damage the printer.

M907 E538 ; set extruder motor current
G21 ; set units to millimeters
G90 ; use absolute coordinates
M83 ; use relative distances for extrusion
M900 K0.08 ; Filament gcode LA 1.5
M900 K45 ; Filament gcode LA 1.0
;LAYER_CHANGE
;Z:0.2
;HEIGHT:0.2
;BEFORE_LAYER_CHANGE
G92 E0.0
;0.2


G1 E-1.00000 F2100.000
G1 Z0.200 F10800.000
;AFTER_LAYER_CHANGE
;0.2
G1 Z0.400
G1 X28.788 Y87.311
G1 Z0.200
G1 E1.00000 F2100.000
M204 S1000
;TYPE:Skirt
;WIDTH:0.42
G1 F1200.000
G1 X29.807 Y86.939 E0.03401
G1 X30.449 Y86.874 E0.02024
G1 X219.953 Y86.874 E5.94176
G1 X221.045 Y86.999 E0.03446
G1 X221.553 Y87.145 E0.01657
G1 X222.538 Y87.584 E0.03381
G1 X223.526 Y88.348 E0.03919
G1 X224.219 Y89.215 E0.03478
G1 X224.476 Y89.672 E0.01645
G1 X224.864 Y90.679 E0.03382
G1 X225.025 Y91.876 E0.03788
G1 X225.026 Y115.962 E0.75521
G1 X224.912 Y116.975 E0.03196
G1 X224.790 Y117.466 E0.01585
G1 X224.384 Y118.421 E0.03252
G1 X223.549 Y119.531 E0.04356
G1 X222.437 Y120.376 E0.04380
G1 X221.031 Y120.905 E0.04708
G1 X219.952 Y121.028 E0.03407
G1 X30.419 Y121.028 E5.94268
M73 P0 R119
G1 X29.339 Y120.836 E0.03439
G1 X28.753 Y120.571 E0.02015
G1 X28.221 Y120.184 E0.02063
G1 X27.520 Y119.332 E0.03460
G1 X27.137 Y118.293 E0.03471
G1 X27.072 Y117.657 E0.02004
G1 X27.081 Y90.049 E0.86563
M73 Q0 S120
G1 X27.180 Y89.405 E0.02043
G1 X27.393 Y88.827 E0.01932
G1 X27.955 Y87.976 E0.03199
G1 X28.741 Y87.348 E0.03154
; printing object LED-Base.stl id:0 copy 0
;WIPE_START
G1 F8640.000
G1 X29.807 Y86.939 E-0.26361
G1 X30.449 Y86.874 E-0.14902
G1 X32.776 Y86.874 E-0.53737
;WIPE_END
G1 E-0.05000 F2100.000
G1 Z0.400 F10800.000
G1 X66.471 Y108.757
G1 Z0.200
G1 E1.00000 F2100.000
;TYPE:Support material
G1 F1200.000
G1 X66.471 Y99.314 E0.29607
G1 X65.716 Y99.314 E0.02365
G1 X65.716 Y108.587 E0.29075
G1 X64.962 Y108.587 E0.02365
G1 X64.962 Y99.314 E0.29075
G1 X64.208 Y99.314 E0.02365
G1 X64.208 Y108.587 E0.29075
G1 X63.454 Y108.587 E0.02365
G1 X63.454 Y99.314 E0.29075
G1 X62.700 Y99.314 E0.02365
G1 X62.700 Y108.587 E0.29075
G1 X61.946 Y108.587 E0.02365
G1 X61.946 Y99.314 E0.29075
G1 X61.191 Y99.314 E0.02365
G1 X61.191 Y108.587 E0.29075
G1 X60.678 Y108.587 E0.01610
G1 X60.437 Y108.828 E0.01067
G1 X60.436 Y94.065 E0.46289
G1 X59.683 Y94.065 E0.02359
G1 X59.683 Y113.837 E0.61995
G1 X58.929 Y113.837 E0.02365
G1 X58.929 Y94.065 E0.61995
G1 X58.175 Y94.065 E0.02365
G1 X58.175 Y113.837 E0.61995
G1 X57.421 Y113.837 E0.02365
G1 X57.421 Y94.065 E0.61995
G1 X56.666 Y94.065 E0.02365
G1 X56.666 Y113.837 E0.61995
G1 X55.912 Y113.837 E0.02365
G1 X55.912 Y94.065 E0.61995
G1 X55.158 Y94.065 E0.02365
G1 X55.158 Y113.837 E0.61995
G1 X54.404 Y113.837 E0.02365
G1 X54.404 Y94.065 E0.61995
G1 X53.650 Y94.065 E0.02365
G1 X53.650 Y113.837 E0.61995
G1 X52.896 Y113.837 E0.02365
G1 X52.896 Y94.065 E0.61995
G1 X52.142 Y94.065 E0.02365
G1 X52.142 Y113.837 E0.61995
G1 X51.387 Y113.837 E0.02365
G1 X51.387 Y94.065 E0.61995
G1 X50.633 Y94.065 E0.02365
G1 X50.633 Y113.837 E0.61995
G1 X49.879 Y113.837 E0.02365
G1 X49.879 Y93.895 E0.62527
;WIPE_START
G1 F8640.000
G1 X49.879 Y98.009 E-0.95000
;WIPE_END
G1 E-0.05000 F2100.000
G1 Z0.400 F10800.000
G1 X71.237 Y111.389
G1 Z0.200
G1 E1.00000 F2100.000
;TYPE:Perimeter
G1 F1200.000
G1 X72.002 Y110.802 E0.03023
G1 X72.893 Y110.433 E0.03023
G1 X73.849 Y110.307 E0.03023
G1 X74.805 Y110.433 E0.03023
G1 X75.696 Y110.802 E0.03023
G1 X76.461 Y111.389 E0.03023
G1 X77.048 Y112.154 E0.03023
G1 X77.417 Y113.045 E0.03023
G1 X77.543 Y114.001 E0.03023
G1 X77.417 Y114.957 E0.03023
G1 X77.048 Y115.848 E0.03023
G1 X76.461 Y116.613 E0.03023
G1 X75.696 Y117.200 E0.03023
G1 X74.805 Y117.569 E0.03023
G1 X73.849 Y117.695 E0.03023
G1 X72.893 Y117.569 E0.03023
G1 X72.002 Y117.200 E0.03023
G1 X71.237 Y116.613 E0.03023
G1 X70.650 Y115.848 E0.03023
G1 X70.281 Y114.957 E0.03023
G1 X70.155 Y114.001 E0.03023
G1 X70.281 Y113.045 E0.03023
G1 X70.650 Y112.154 E0.03023
G1 X71.201 Y111.437 E0.02835
G1 X71.500 Y111.666 F10800.000
;TYPE:External perimeter
G1 F1200.000
G1 X72.192 Y111.131 E0.02744
G1 X72.991 Y110.800 E0.02712
G1 X73.849 Y110.687 E0.02712
G1 X74.707 Y110.800 E0.02712
G1 X75.506 Y111.131 E0.02712
G1 X76.192 Y111.658 E0.02712
G1 X76.719 Y112.344 E0.02712
G1 X77.050 Y113.143 E0.02712
G1 X77.163 Y114.001 E0.02712
G1 X77.050 Y114.859 E0.02712
G1 X76.719 Y115.658 E0.02712
G1 X76.192 Y116.344 E0.02712
G1 X75.506 Y116.871 E0.02712
G1 X74.707 Y117.202 E0.02712
G1 X73.849 Y117.314 E0.02712
G1 X72.991 Y117.202 E0.02712
G1 X72.192 Y116.871 E0.02712
G1 X71.506 Y116.344 E0.02712
G1 X70.979 Y115.658 E0.02712
G1 X70.648 Y114.859 E0.02712
G1 X70.536 Y114.001 E0.02712
G1 X70.648 Y113.143 E0.02712
G1 X70.979 Y112.344 E0.02712
G1 X71.463 Y111.714 E0.02492
G1 X71.395 Y111.280 F10800.000
;WIPE_START
G1 F8640.000
G1 X72.192 Y111.131 E-0.21547
G1 X72.991 Y110.800 E-0.19973
G1 X73.849 Y110.687 E-0.19973
G1 X74.707 Y110.800 E-0.19973
G1 X75.248 Y111.025 E-0.13534
;WIPE_END
G1 E-0.05000 F2100.000
G1 Z0.400 F10800.000
G1 X72.893 Y97.569
G1 Z0.200
G1 E1.00000 F2100.000
;TYPE:Perimeter
G1 F1200.000
G1 X72.002 Y97.200 E0.03023
G1 X71.237 Y96.613 E0.03023
G1 X70.650 Y95.848 E0.03023
G1 X70.281 Y94.957 E0.03023
G1 X70.155 Y94.001 E0.03023
G1 X70.281 Y93.045 E0.03023
G1 X70.650 Y92.154 E0.03023
G1 X71.237 Y91.389 E0.03023
G1 X72.002 Y90.802 E0.03023
G1 X72.893 Y90.433 E0.03023
G1 X73.849 Y90.307 E0.03023
G1 X74.805 Y90.433 E0.03023
G1 X75.696 Y90.802 E0.03023
G1 X76.461 Y91.389 E0.03023
G1 X77.048 Y92.154 E0.03023
G1 X77.417 Y93.045 E0.03023
G1 X77.543 Y94.001 E0.03023
G1 X77.417 Y94.957 E0.03023
G1 X77.048 Y95.848 E0.03023
G1 X76.461 Y96.613 E0.03023
G1 X75.696 Y97.200 E0.03023
G1 X74.805 Y97.569 E0.03023
G1 X73.849 Y97.695 E0.03023
G1 X72.953 Y97.577 E0.02835
G1 X73.002 Y97.203 F10800.000
;TYPE:External perimeter
G1 F1200.000
G1 X72.192 Y96.871 E0.02744
G1 X71.506 Y96.344 E0.02712
G1 X70.979 Y95.658 E0.02712
G1 X70.648 Y94.858 E0.02712
G1 X70.536 Y94.001 E0.02712
G1 X70.648 Y93.143 E0.02712
G1 X70.979 Y92.344 E0.02712
G1 X71.506 Y91.658 E0.02712
G1 X72.192 Y91.131 E0.02712
G1 X72.991 Y90.800 E0.02712
G1 X73.849 Y90.687 E0.02712
G1 X74.707 Y90.800 E0.02712
G1 X75.506 Y91.131 E0.02712
G1 X76.192 Y91.658 E0.02712
G1 X76.719 Y92.344 E0.02712
G1 X77.050 Y93.143 E0.02712
G1 X77.163 Y94.001 E0.02712
G1 X77.050 Y94.859 E0.02712
G1 X76.719 Y95.658 E0.02712
G1 X76.192 Y96.344 E0.02712
G1 X75.506 Y96.871 E0.02712
G1 X74.707 Y97.202 E0.02712
G1 X73.849 Y97.314 E0.02712
G1 X73.061 Y97.211 E0.02492
G1 X72.720 Y97.486 F10800.000
;WIPE_START
G1 F8640.000
G1 X72.192 Y96.871 E-0.21547
G1 X71.506 Y96.344 E-0.19973
G1 X70.979 Y95.658 E-0.19973
G1 X70.648 Y94.858 E-0.19973
G1 X70.572 Y94.277 E-0.13534
;WIPE_END
G1 E-0.05000 F2100.000
G1 Z0.400 F10800.000
G1 X36.462 Y90.264
G1 Z0.200
G1 E1.00000 F2100.000
;TYPE:Perimeter
G1 F1200.000
G1 X61.636 Y90.264 E0.78932
G1 X61.636 Y98.114 E0.24613
G1 X218.636 Y98.114 E4.92262
G1 X218.636 Y109.788 E0.36603
G1 X61.636 Y109.788 E4.92262
M73 P1 R119
M73 Q1 S120
G1 X61.636 Y117.638 E0.24613
G1 X36.462 Y117.638 E0.78932
G1 X36.462 Y90.324 E0.85642
G1 X36.839 Y90.641 F10800.000
;TYPE:External perimeter
G1 F1200.000
G1 X61.259 Y90.641 E0.76567
G1 X61.259 Y98.491 E0.24613
G1 X218.259 Y98.491 E4.92262
M73 P1 R118
G1 X218.259 Y109.411 E0.34239
G1 X61.259 Y109.411 E4.92262
M73 Q1 S119
G1 X61.259 Y117.261 E0.24613
G1 X36.839 Y117.261 E0.76567
G1 X36.839 Y90.701 E0.83277
G1 X36.741 Y90.253 F10800.000
;WIPE_START
G1 F8640.000
G1 X40.953 Y90.691 E-0.95000
;WIPE_END
G1 E-0.05000 F2100.000
G1 Z0.400 F10800.000
G1 X204.155 Y94.001
G1 Z0.200
G1 E1.00000 F2100.000
;TYPE:Perimeter
G1 F1200.000
G1 X204.281 Y93.045 E0.03023
G1 X204.650 Y92.154 E0.03023
G1 X205.237 Y91.389 E0.03023
G1 X206.002 Y90.802 E0.03023
G1 X206.893 Y90.433 E0.03023
G1 X207.849 Y90.307 E0.03023
G1 X208.805 Y90.433 E0.03024
G1 X209.696 Y90.802 E0.03023
G1 X210.461 Y91.389 E0.03023
G1 X211.048 Y92.154 E0.03023
G1 X211.417 Y93.045 E0.03023
G1 X211.543 Y94.001 E0.03023
G1 X211.417 Y94.957 E0.03023
G1 X211.048 Y95.848 E0.03023
G1 X210.461 Y96.613 E0.03023
G1 X209.696 Y97.200 E0.03023
G1 X208.805 Y97.569 E0.03023
G1 X207.849 Y97.695 E0.03024
G1 X206.893 Y97.569 E0.03023
G1 X206.002 Y97.200 E0.03023
G1 X205.237 Y96.613 E0.03023
G1 X204.650 Y95.848 E0.03023
G1 X204.281 Y94.957 E0.03023
G1 X204.163 Y94.060 E0.02835
G1 X204.537 Y94.011 F10800.000
;TYPE:External perimeter
G1 F1200.000
G1 X204.648 Y93.143 E0.02744
G1 X204.979 Y92.344 E0.02712
G1 X205.506 Y91.658 E0.02712
G1 X206.192 Y91.131 E0.02712
G1 X206.991 Y90.800 E0.02712
G1 X207.849 Y90.687 E0.02712
G1 X208.707 Y90.800 E0.02712
G1 X209.506 Y91.131 E0.02712
G1 X210.192 Y91.658 E0.02712
G1 X210.719 Y92.344 E0.02712
G1 X211.050 Y93.143 E0.02712
G1 X211.163 Y94.001 E0.02712
G1 X211.050 Y94.858 E0.02712
G1 X210.719 Y95.658 E0.02712
G1 X210.192 Y96.344 E0.02712
G1 X209.506 Y96.871 E0.02712
G1 X208.707 Y97.202 E0.02712
G1 X207.849 Y97.314 E0.02712
G1 X206.991 Y97.202 E0.02712
G1 X206.192 Y96.871 E0.02712
G1 X205.506 Y96.344 E0.02712
G1 X204.979 Y95.658 E0.02712
G1 X204.648 Y94.858 E0.02712
G1 X204.545 Y94.071 E0.02492
G1 X204.190 Y93.812 F10800.000
;WIPE_START
G1 F8640.000
G1 X204.648 Y93.143 E-0.21547
G1 X204.979 Y92.344 E-0.19973
G1 X205.506 Y91.658 E-0.19973
G1 X206.192 Y91.131 E-0.19973
G1 X206.734 Y90.907 E-0.13534
;WIPE_END
G1 E-0.05000 F2100.000
G1 Z0.400 F10800.000
G1 X206.893 Y110.433
G1 Z0.200
G1 E1.00000 F2100.000
;TYPE:Perimeter
G1 F1200.000
G1 X207.849 Y110.307 E0.03023
G1 X208.805 Y110.433 E0.03024
G1 X209.696 Y110.802 E0.03023
G1 X210.461 Y111.389 E0.03023
G1 X211.048 Y112.154 E0.03023
G1 X211.417 Y113.045 E0.03023
G1 X211.543 Y114.001 E0.03023
G1 X211.417 Y114.957 E0.03023
G1 X211.048 Y115.848 E0.03023
G1 X210.461 Y116.613 E0.03023
G1 X209.696 Y117.200 E0.03023
G1 X208.805 Y117.569 E0.03023
G1 X207.849 Y117.695 E0.03024
G1 X206.893 Y117.569 E0.03023
G1 X206.002 Y117.200 E0.03023
G1 X205.237 Y116.613 E0.03023
G1 X204.650 Y115.848 E0.03023
G1 X204.281 Y114.957 E0.03023
G1 X204.155 Y114.001 E0.03023
G1 X204.281 Y113.045 E0.03023
G1 X204.650 Y112.154 E0.03023
G1 X205.237 Y111.389 E0.03023
G1 X206.002 Y110.802 E0.03023
G1 X206.838 Y110.456 E0.02835
G1 X206.982 Y110.804 F10800.000
;TYPE:External perimeter
G1 F1200.000
G1 X207.849 Y110.687 E0.02744
G1 X208.707 Y110.800 E0.02712
G1 X209.506 Y111.131 E0.02712
G1 X210.192 Y111.658 E0.02712
G1 X210.719 Y112.344 E0.02712
G1 X211.050 Y113.143 E0.02712
G1 X211.163 Y114.001 E0.02712
G1 X211.050 Y114.858 E0.02712
G1 X210.719 Y115.658 E0.02712
G1 X210.192 Y116.344 E0.02712
G1 X209.506 Y116.871 E0.02712
G1 X208.707 Y117.202 E0.02712
G1 X207.849 Y117.314 E0.02712
G1 X206.991 Y117.202 E0.02712
G1 X206.192 Y116.871 E0.02712
G1 X205.506 Y116.344 E0.02712
G1 X204.979 Y115.658 E0.02712
G1 X204.648 Y114.858 E0.02712
G1 X204.536 Y114.001 E0.02712
G1 X204.648 Y113.143 E0.02712
G1 X204.979 Y112.344 E0.02712
G1 X205.506 Y111.658 E0.02712
G1 X206.192 Y111.131 E0.02712
G1 X206.926 Y110.827 E0.02492
G1 X207.085 Y110.418 F10800.000
;WIPE_START
G1 F8640.000
G1 X207.849 Y110.687 E-0.21547
G1 X208.707 Y110.800 E-0.19973
G1 X209.506 Y111.131 E-0.19973
G1 X210.192 Y111.658 E-0.19973
G1 X210.549 Y112.123 E-0.13534
;WIPE_END
G1 E-0.05000 F2100.000
G1 Z0.400 F10800.000
G1 X30.346 Y117.829
G1 Z0.200
G1 E1.00000 F2100.000
;TYPE:Perimeter
G1 F1200.000
G1 X30.271 Y117.754 E0.00335
G1 X30.236 Y117.599 E0.00497
G1 X30.236 Y90.302 E0.85587
G1 X30.271 Y90.148 E0.00497
G1 X30.303 Y90.105 E0.00169
G1 X30.396 Y90.052 E0.00335
G1 X30.501 Y90.038 E0.00332
G1 X219.898 Y90.038 E5.93840
G1 X220.442 Y90.110 E0.01723
G1 X220.902 Y90.300 E0.01560
G1 X221.297 Y90.603 E0.01560
G1 X221.600 Y90.998 E0.01560
G1 X221.790 Y91.458 E0.01560
G1 X221.862 Y92.002 E0.01723
G1 X221.862 Y115.899 E0.74927
G1 X221.790 Y116.444 E0.01723
G1 X221.600 Y116.904 E0.01560
G1 X221.297 Y117.299 E0.01560
G1 X220.902 Y117.602 E0.01560
G1 X220.442 Y117.792 E0.01560
G1 X219.898 Y117.864 E0.01723
G1 X30.501 Y117.864 E5.93840
G1 X30.402 Y117.851 E0.00312
G1 X29.941 Y117.944 F10800.000
;TYPE:External perimeter
G1 F1200.000
G1 X29.883 Y117.803 E0.00480
G1 X29.859 Y117.624 E0.00565
G1 X29.859 Y90.278 E0.85742
G1 X29.883 Y90.099 E0.00565
G1 X29.941 Y89.958 E0.00480
G1 X30.034 Y89.836 E0.00480
G1 X30.156 Y89.743 E0.00480
G1 X30.297 Y89.684 E0.00480
G1 X30.476 Y89.661 E0.00565
G1 X219.922 Y89.661 E5.93995
G1 X220.541 Y89.742 E0.01956
G1 X221.092 Y89.971 E0.01871
G1 X221.566 Y90.334 E0.01872
G1 X221.929 Y90.808 E0.01871
G1 X222.158 Y91.359 E0.01872
G1 X222.239 Y91.978 E0.01956
G1 X222.239 Y115.924 E0.75082
G1 X222.158 Y116.543 E0.01956
G1 X221.929 Y117.094 E0.01872
G1 X221.566 Y117.568 E0.01871
G1 X221.092 Y117.931 E0.01872
G1 X220.541 Y118.159 E0.01871
G1 X219.922 Y118.241 E0.01956
G1 X30.476 Y118.241 E5.93995
M73 P2 R117
M73 Q2 S118
G1 X30.297 Y118.217 E0.00565
G1 X30.156 Y118.159 E0.00480
G1 X30.034 Y118.066 E0.00480
G1 X29.978 Y117.992 E0.00292
G1 X30.018 Y117.812 F10800.000
;WIPE_START
G1 F8640.000
G1 X29.883 Y117.803 E-0.04886
G1 X29.859 Y117.624 E-0.04161
G1 X29.859 Y113.902 E-0.85953
;WIPE_END
G1 E-0.05000 F2100.000
G1 Z0.400 F10800.000
G1 X35.586 Y90.151
G1 Z0.200
G1 E1.00000 F2100.000
;TYPE:Solid infill
;WIDTH:0.420269
G1 F1200.000
G1 X36.179 Y90.744 E0.02632
G1 X36.179 Y91.278 E0.01674
G1 X35.222 Y90.321 E0.04247
G1 X34.688 Y90.321 E0.01674
G1 X36.179 Y91.812 E0.06615
G1 X36.179 Y92.345 E0.01674
G1 X34.155 Y90.321 E0.08983
G1 X33.621 Y90.321 E0.01674
G1 X36.179 Y92.879 E0.11351
G1 X36.179 Y93.412 E0.01674
G1 X33.088 Y90.321 E0.13719
G1 X32.554 Y90.321 E0.01674
G1 X36.179 Y93.946 E0.16087
G1 X36.179 Y94.480 E0.01674
G1 X32.020 Y90.321 E0.18455
G1 X31.487 Y90.321 E0.01674
G1 X36.179 Y95.013 E0.20823
G1 X36.179 Y95.547 E0.01674
G1 X30.953 Y90.321 E0.23191
G1 X30.522 Y90.321 E0.01353
G1 X30.519 Y90.334 E0.00041
G1 X30.519 Y90.420 E0.00273
G1 X36.179 Y96.081 E0.25117
G1 X36.179 Y96.614 E0.01674
G1 X30.519 Y90.954 E0.25117
G1 X30.519 Y91.488 E0.01674
G1 X36.179 Y97.148 E0.25117
G1 X36.179 Y97.682 E0.01674
G1 X30.519 Y92.021 E0.25117
G1 X30.519 Y92.555 E0.01674
G1 X36.179 Y98.215 E0.25117
G1 X36.179 Y98.749 E0.01674
G1 X30.519 Y93.089 E0.25117
G1 X30.519 Y93.622 E0.01674
G1 X36.179 Y99.283 E0.25117
G1 X36.179 Y99.816 E0.01674
G1 X30.519 Y94.156 E0.25117
G1 X30.519 Y94.690 E0.01674
G1 X36.179 Y100.350 E0.25117
G1 X36.179 Y100.884 E0.01674
G1 X30.519 Y95.223 E0.25117
G1 X30.519 Y95.757 E0.01674
G1 X36.179 Y101.417 E0.25117
G1 X36.179 Y101.951 E0.01674
G1 X30.519 Y96.291 E0.25117
G1 X30.519 Y96.824 E0.01674
G1 X36.179 Y102.485 E0.25117
G1 X36.179 Y103.018 E0.01674
G1 X30.519 Y97.358 E0.25117
G1 X30.519 Y97.892 E0.01674
G1 X36.179 Y103.552 E0.25117
G1 X36.179 Y104.086 E0.01674
G1 X30.519 Y98.425 E0.25117
G1 X30.519 Y98.959 E0.01674
G1 X36.179 Y104.619 E0.25117
G1 X36.179 Y105.153 E0.01674
G1 X30.519 Y99.493 E0.25117
